X:1
T:Lasst Uns Erfreuen
T:Lasst Uns Erfreuen
T:Public Domain, Courtesy of the Cyber Hymnal (http://www.cyberhymnal.org)
T:Public Domain, Courtesy of the Cyber Hymnal (http://www.cyberhymnal.org)
Z:Public Domain, Courtesy of the Cyber Hymnal (http://www.cyberhymnal.org)
%%score { ( 1 2 ) ( 3 4 ) }
L:1/8
Q:1/4=180
M:2/4
K:Eb
V:1 treble nm="P1"
V:2 treble 
V:3 bass nm="P2"
V:4 bass 
V:1
"^Editor: John Henry Fowler""^( Revision: 11-21-2007 )" E4 |[M:6/4] E4 G2 E2 G2 A2 | %2
 [FB]8"^( 1906 )" E4 | E2 F2 G2 E2 G2 A2 | B8"^Ralph Vaughan Williams" e2"^( 1872 - 1958 )" d2 | %5
 c4 B4 e2 d2 |[M:15/8] c4 B7 e4 |[M:6/4] e2 B2 B2 A2 G2 A2 | [FB]8 [Be]4 | %9
 [Be]2 [AB]2 [GB]2 A2 G2 A2 | B8 A2 G2 | F4 E4 A2 G2 | F4 E4 e2 d2 | c4 B4 e2 d2 | c4 B4 A2 G2 | %15
 G12 |[M:4/4] E8 |] %17
V:2
 B,4 |[M:6/4] E2 (F2 E2) E2 E4 | E8 E4 | B,2 D2 E4 E4 | [EF]8 B2 B2 | B2 A2 G4 E2 F2 | %6
[M:15/8] G2 F2 D7 B2 A2 |[M:6/4] G6 F2 E4 | E4 D4 E2 F2 | E2 D2 E2 E6 | E2 D2 G2 F2 E2 E2 | %11
 E2 D2 E4 E2 E2 | E2 D2 C4 G2 F2 | G2 F2 D4 [GB]4 | [GB]2 [FA]2 [FA]2 [CG]2 [CG]2 E2 | E4 D8 | %16
[M:4/4] B,8 |] %17
V:3
 G,4 |[M:6/4] G,2 A,2 A,2 G,2 C4 | B,8 B,2 C2 | B,2 A,2 B,4 C4 | B,8 E2 E2 | E4 E4 G,2 B,2 | %6
[M:15/8] B,2 =A,2 B,7 C4 |[M:6/4] C6 B,2 B,2 A,2 | F,4 B,4 B,4 | B,4 B,2 E2 D2 C2 | B,8 C2 C2 | %11
 C2 B,2 B,4 C2 B,2 | C2 A,2 G,4 G,2 B,2 | B,2 =A,2 B,4 [G,B,]4 | G,2 A,2 F,2 G,2 A,2 B,2 | %15
 C4 B,4 A,4 |[M:4/4] G,8 |] %17
V:4
 E,4 |[M:6/4] E,6 E,D, C,2 F,2 | B,,6 A,2 G,2 A,2 | G,2 F,2 E,2 D,2 C,2 F,2 | B,,6 A,2 G,2 G,2 | %5
 A,4 E,4 C,2 D,2 |[M:15/8] E,2 F,2 B,,7 G,2 F,2 |[M:6/4] E,2 D,2 C,2 D,2 E,2 C,2 | %8
 B,,4 B,2 A,2 G,2 A,2 | G,2 F,2 E,2 C2 B,2 A,2 | G,2 F,2 E,2 D,2 C,2 B,,2 | A,,4 G,,4 F,,2 G,,2 | %12
 A,,2 B,,2 C,4 C,2 D,2 | D,2 F,2 B,,4 C,2 D,2 | E,2 F,2 D,2 =E,2 F,2 G,2 | A,4 B,4 B,,4 | %16
[M:4/4] [E,,E,]8 |] %17

